src/icons/twitter.icon.svg

<?xml version="1.0" encoding="UTF-8"?>
<svg width="24px" height="24px" viewBox="0 0 24 24" version="1.1" xmlns="http://www.w3.org/2000/svg" xmlns:xlink="http://www.w3.org/1999/xlink">
    <!-- Generator: Sketch 51.2 (57519) - http://www.bohemiancoding.com/sketch -->
    <title>IconTwitter</title>
    <desc>Created with Sketch.</desc>
    <defs></defs>
    
    <g id="IconTwitter" transform="translate(0.000000, 0.000000)">
        <path d="M23,5.25 C22.1904,5.613 21.3206667,5.73675 20.4084,5.8455 C21.2121333,5.22675 21.625,5.016 22.2666667,3.75 C21.3947333,4.2705 20.5536,4.23225 19.5262,4.4355 C18.7026667,3.552 17.5286,3 16.2320667,3 C13.7394667,3 11.7169333,5.03475 11.7169333,7.54425 C11.7169333,7.89975 11.7572667,8.247 11.835,8.58 C8.084,8.39025 4.69233333,6.49875 2.46666667,3.75 C2.07873333,4.42125 1.92033333,5.283 1.92033333,6.117 C1.92033333,7.69275 2.71746667,9.08325 3.92966667,9.89925 C3.189,9.876 2.49233333,9.6705 1.8844,9.33 L1.8844,9.38775 C1.8844,11.589 3.4398,13.425 5.50486667,13.8435 C5.12573333,13.94775 4.72753333,14.00325 4.31613333,14.00325 C4.02426667,14.00325 3.74193333,13.97475 3.4662,13.92075 C4.0404,15.72675 5.62513333,17.21325 7.6,17.25 C5.675,19.47675 1.35346667,18.7905 1,18.75 C2.99833333,20.03925 5.3714,21 7.919,21 C16.2210667,21 20.7611333,14.07675 20.7611333,8.0715 C20.7611333,7.87425 20.7567333,7.67775 20.7486667,7.4835 C21.6294,6.84375 22.395,6.16275 23,5.25" id="mask" fill="currentColor"></path>
    </g>
    
</svg>

<svg xmlns="http://www.w3.org/2000/svg" viewBox="0 0 24 24"><path d="M23 5.25c-.81.363-1.68.487-2.592.596.804-.62 1.217-.83 1.859-2.096-.872.52-1.713.482-2.74.686A4.495 4.495 0 0016.231 3c-2.493 0-4.515 2.035-4.515 4.544 0 .356.04.703.118 1.036-3.751-.19-7.143-2.081-9.368-4.83-.388.671-.547 1.533-.547 2.367 0 1.576.797 2.966 2.01 3.782a4.466 4.466 0 01-2.046-.569v.058a4.54 4.54 0 003.62 4.456 4.475 4.475 0 01-2.038.077c.574 1.806 2.16 3.292 4.134 3.329-1.925 2.227-6.247 1.54-6.6 1.5C2.998 20.04 5.371 21 7.919 21c8.302 0 12.842-6.923 12.842-12.928 0-.198-.004-.394-.012-.588.88-.64 1.646-1.321 2.251-2.234" fill="currentColor"/></svg>
